X: 111
T: Cantantibus organis – Maestoso
C: Franciszek Walczyński
%%abc-version 2.0
%%abcx-abcm2ps-target-version 5.9.1 (29 Sep 2008)
%%abc-creator hum2abc beta
%%abcx-conversion-date 2021/10/04 07:38:40
%%abc-edited-by Andrzej Borzym
%%abc-edited-by Anastazja Marusiak
%%abcx-initial-encoding-date 2021-07-27
%%humdrum-veritas 3515887627
%%humdrum-veritas-data 3540653615
%%linebreak <none>
%%barnumbers 0
L: 1/4
M: C
N: Derived from pl-kozmzk--mzk-m-346--012_walczynski-franciszek--cantantibus-organis-maestoso.krn
Q: "Maestoso."
%%staves {1 2}
V: 1 clef=treble
V: 2 clef=bass
K: G
[V:1] z4 & z4 | 
[V:2] E,F,G,A,/C/ & E,,F,,G,,A,,/C,/ | 
[V:1] zFG^G & z^DE2- | 
[V:2] B,4 & B,,2E,D, | 
[V:1] ABc2 & E2x2 | 
[V:2] A,^G,A,2 & C,B,,A,,2 | 
[V:1] z4 & z4 | 
[V:2] A,B,CD/=F/ & A,,B,,C,D,/=F,/ | 
[V:1] z^GAB & zE3- | 
[V:2] EDC^G, & E,4- | 
[V:1] cd!accent!e2 & EA^G2 | 
[V:2] A,2B,2 & E,=F,E,2 | 
[V:1] dcB2 & A2G2- | 
[V:2] D4 & ^F,2G,=F, | 
[V:1] cBA2 & G4- | 
[V:2] CDE2 & E,D,C,^C, | 
[V:1] BAG^G & GFE2- | 
[V:2] DCB,2 & D,^D,E,=D, | 
[V:1] AGF2 & E4 | 
[V:2] A,B,C^C & C,B,,A,,^A,, | 
[V:1] G2F2 & E3^D | 
[V:2] B,3A, & B,,4 | 
[V:1] EFGA/c/ & Ezz2 | 
[V:2] G,zz2 & E,zz2 | 
[V:1] B4 & z[AF][GE][F^D] | 
[V:2] z4 | 
[V:1] B^c^de/g/ & [GE]zz2 | 
[V:2] z4 & z4 | 
[V:1] x2!fermata!^d2 & z[ec]!fermata!B!fermata!A | 
[V:2] !fermata!z4 | 
[V:1] e4- & [B4G4E4]- | 
[V:2] !accent!E,!accent!F,!accent!G,A,/C/ & E,,F,,G,,A,,/C,/ | 
[V:1] e4- & [B4G4E4] | 
[V:2] [B,B,,][A,A,,][G,G,,][F,F,,] | 
[V:1] e4- & [B4G4E4] | 
[V:2] [E,E,,]!accent!C,!accent!B,,!accent!G,,/!accent!F,,/ | 
[V:1] e4- & [B2G2][cG][cA] | 
[V:2] E,,2C,,A,,/F,,/ | 
[V:1] !fermata!e4 & [B4^G4E4] |]  
[V:2] [E,4E,,4] |]  


